public/main-frontend/img/techcrunch.svg

<svg xmlns="http://www.w3.org/2000/svg" width="218" height="31" fill="none"><g clip-path="url(#a)"><path fill="#000" d="M61.085 0H40.724v10.308h20.361V0Z"/><path fill="#1B202F" d="M0 0v10.308h10.219V31h10.143V10.308H30.58V0H0ZM30.58 31H61.162V20.692H40.724V10.308H30.58V31ZM87.124 7.825H72.137v4.29h4.996v13.467h4.996V12.114h4.995V7.825ZM92.726 11.964c-3.558 0-6.132 2.332-6.132 6.922 0 4.063 2.196 6.922 6.283 6.922 2.12 0 3.785-.526 5.45-1.505l-1.74-2.934c-1.363.677-2.272.903-3.483.903-1.287 0-2.12-.677-2.27-2.107h7.872v-.903c0-4.89-2.271-7.298-5.98-7.298Zm-1.893 5.417c.152-1.354.757-2.031 1.817-2.031 1.362 0 1.817.677 2.044 2.031h-3.86ZM107.41 22.121c-1.286 0-1.892-1.128-1.892-3.235s.606-3.31 1.741-3.31c.984 0 1.438.526 2.044 1.73l3.179-2.408c-1.211-1.881-2.649-3.01-5.147-3.01-4.315 0-6.359 2.784-6.359 6.923 0 4.514 2.347 6.997 6.283 6.997 2.346 0 3.86-.903 5.374-3.16l-2.876-2.257c-.833 1.279-1.438 1.73-2.347 1.73ZM123.306 11.964c-1.589 0-2.498.526-3.406 1.204V7.073l-4.617 1.806v16.703h4.617v-7.599c0-1.655.606-2.107 1.59-2.107.908 0 1.513.452 1.513 2.182v7.524h4.618v-8.126c0-3.536-1.438-5.492-4.315-5.492ZM138.672 21.595c-2.119 0-3.028-2.182-3.028-4.891 0-2.784.909-4.89 2.953-4.89 1.665 0 2.27 1.053 2.876 2.708l4.466-1.73c-1.211-3.387-2.952-5.268-7.342-5.268-4.769 0-8.175 3.462-8.175 9.18 0 5.267 2.8 9.18 8.175 9.18 4.238 0 6.206-2.258 7.418-4.59l-4.164-2.182c-.908 1.655-1.589 2.483-3.179 2.483ZM153.508 13.243v-.979h-4.617v13.319h4.617v-7.299c0-1.655.682-2.182 1.817-2.182.908 0 1.59.451 2.119 1.129l1.06-4.74c-.53-.302-1.211-.527-2.195-.527-1.135 0-2.044.526-2.801 1.279ZM168.42 19.864c0 1.655-.605 2.107-1.514 2.107-.908 0-1.514-.452-1.514-2.182v-7.524h-4.617v8.126c0 3.536 1.438 5.493 4.315 5.493 1.589 0 2.498-.527 3.33-1.204v.902h4.618V12.265h-4.618v7.6ZM184.316 11.964c-1.59 0-2.498.526-3.406 1.203v-.902h-4.542v13.317h4.617v-7.599c0-1.655.606-2.107 1.59-2.107.908 0 1.514.452 1.514 2.182v7.524h4.617v-8.126c0-3.536-1.438-5.492-4.39-5.492ZM197.79 22.121c-1.287 0-1.893-1.128-1.893-3.235s.606-3.31 1.741-3.31c.984 0 1.438.526 2.044 1.73l3.179-2.408c-1.211-1.881-2.649-3.01-5.147-3.01-4.315 0-6.358 2.784-6.358 6.923 0 4.514 2.346 6.997 6.282 6.997 2.347 0 3.861-.903 5.375-3.16l-2.877-2.257c-.833 1.279-1.438 1.73-2.346 1.73ZM213.685 11.964c-1.589 0-2.497.526-3.406 1.204V7.073l-4.617 1.806v16.703h4.617v-7.599c0-1.655.606-2.107 1.59-2.107.908 0 1.514.452 1.514 2.182v7.524H218v-8.126c0-3.536-1.438-5.492-4.315-5.492Z"/></g><defs><clipPath id="a"><path fill="#fff" d="M0 0h218v31H0z"/></clipPath></defs></svg>

<svg width="218" height="31" viewBox="0 0 218 31" fill="none" xmlns="http://www.w3.org/2000/svg">
<g clip-path="url(#clip0_228_1010)">
<mask id="mask0_228_1010" style="mask-type:luminance" maskUnits="userSpaceOnUse" x="0" y="0" width="218" height="31">
<path d="M0 0H218V31H0V0Z" fill="white"/>
</mask>
<g mask="url(#mask0_228_1010)">
<path d="M61.0851 0H40.7241V10.308H61.0851V0Z" fill="white"/>
<path d="M0 0V10.308H10.219V31H20.362V10.308H30.58V0H0ZM30.58 31H61.162V20.692H40.724V10.308H30.58V31ZM87.124 7.825H72.137V12.115H77.133V25.582H82.129V12.114H87.124V7.825ZM92.726 11.964C89.168 11.964 86.594 14.296 86.594 18.886C86.594 22.949 88.79 25.808 92.877 25.808C94.997 25.808 96.662 25.282 98.327 24.303L96.587 21.369C95.224 22.046 94.315 22.272 93.104 22.272C91.817 22.272 90.984 21.595 90.834 20.165H98.706V19.262C98.706 14.372 96.435 11.964 92.726 11.964ZM90.833 17.381C90.985 16.027 91.59 15.35 92.65 15.35C94.012 15.35 94.467 16.027 94.694 17.381H90.833ZM107.41 22.121C106.124 22.121 105.518 20.993 105.518 18.886C105.518 16.779 106.124 15.576 107.259 15.576C108.243 15.576 108.697 16.102 109.303 17.306L112.482 14.898C111.271 13.017 109.833 11.888 107.335 11.888C103.02 11.888 100.976 14.672 100.976 18.811C100.976 23.325 103.323 25.808 107.259 25.808C109.605 25.808 111.119 24.905 112.633 22.648L109.757 20.391C108.924 21.67 108.319 22.121 107.41 22.121ZM123.306 11.964C121.717 11.964 120.808 12.49 119.9 13.168V7.073L115.283 8.879V25.582H119.9V17.983C119.9 16.328 120.506 15.876 121.49 15.876C122.398 15.876 123.003 16.328 123.003 18.058V25.582H127.621V17.456C127.621 13.92 126.183 11.964 123.306 11.964ZM138.672 21.595C136.553 21.595 135.644 19.413 135.644 16.704C135.644 13.92 136.553 11.814 138.597 11.814C140.262 11.814 140.867 12.867 141.473 14.522L145.939 12.792C144.728 9.405 142.987 7.524 138.597 7.524C133.828 7.524 130.422 10.986 130.422 16.704C130.422 21.971 133.222 25.884 138.597 25.884C142.835 25.884 144.803 23.626 146.015 21.294L141.851 19.112C140.943 20.767 140.262 21.595 138.672 21.595ZM153.508 13.243V12.264H148.891V25.583H153.508V18.284C153.508 16.629 154.19 16.102 155.325 16.102C156.233 16.102 156.915 16.553 157.444 17.231L158.504 12.491C157.974 12.189 157.293 11.964 156.309 11.964C155.174 11.964 154.265 12.49 153.508 13.243ZM168.42 19.864C168.42 21.519 167.815 21.971 166.906 21.971C165.998 21.971 165.392 21.519 165.392 19.789V12.265H160.775V20.391C160.775 23.927 162.213 25.884 165.09 25.884C166.679 25.884 167.588 25.357 168.42 24.68V25.582H173.038V12.265H168.42V19.864ZM184.316 11.964C182.726 11.964 181.818 12.49 180.91 13.167V12.265H176.368V25.582H180.985V17.983C180.985 16.328 181.591 15.876 182.575 15.876C183.483 15.876 184.089 16.328 184.089 18.058V25.582H188.706V17.456C188.706 13.92 187.268 11.964 184.316 11.964ZM197.79 22.121C196.503 22.121 195.897 20.993 195.897 18.886C195.897 16.779 196.503 15.576 197.638 15.576C198.622 15.576 199.076 16.102 199.682 17.306L202.861 14.898C201.65 13.017 200.212 11.888 197.714 11.888C193.399 11.888 191.356 14.672 191.356 18.811C191.356 23.325 193.702 25.808 197.638 25.808C199.985 25.808 201.499 24.905 203.013 22.648L200.136 20.391C199.303 21.67 198.698 22.121 197.79 22.121ZM213.685 11.964C212.096 11.964 211.188 12.49 210.279 13.168V7.073L205.662 8.879V25.582H210.279V17.983C210.279 16.328 210.885 15.876 211.869 15.876C212.777 15.876 213.383 16.328 213.383 18.058V25.582H218V17.456C218 13.92 216.562 11.964 213.685 11.964Z" fill="white"/>
</g>
</g>
<defs>
<clipPath id="clip0_228_1010">
<rect width="218" height="31" fill="white"/>
</clipPath>
</defs>
</svg>
